_includes/svg/meetup.svg

<svg width="94" height="94" xmlns="http://www.w3.org/2000/svg"><path d="M47 .84C21.506.84.84 21.506.84 47 .84 72.494 21.506 93.16 47 93.16c25.494 0 46.16-20.666 46.16-46.16C93.16 21.506 72.494.84 47 .84zm24.107 65.048c-.576.624-1.492 1.099-2.417 1.341-2.513.657-5.481-.024-7.818-1.053-7.452-3.278-5.807-11.583-2.538-17.31.981-1.72 1.949-3.451 2.924-5.192.767-1.37 2.426-3.679 1.775-5.355-.681-1.757-2.504-1.768-3.701-.287-1.152 1.426-2.123 3.47-2.918 5.129-.865 1.807-5.184 11.299-5.184 11.299-.799 1.547-2.143 3.769-3.602 4.997-1.089.917-3.077 1.186-4.385.236-.993-.723-1.189-1.683-.994-2.8.9-5.159 8.727-17.166 3.328-18.011-2.068-.324-2.63 1.978-3.268 3.447-1.055 2.427-1.858 4.954-2.986 7.354a42.478 42.478 0 0 0-2.971 8.583c-.543 2.365-1.247 5.379-3.94 6.1C25.04 66.338 22.8 61.47 22.8 61.47c-1.203-3.829-.062-7.273 1.098-10.956.896-2.845 1.43-5.778 2.564-8.546 2.023-4.935 4.039-15.231 11.332-14.573 1.861.167 3.943 1.108 5.551 2.046 1.463.854 2.574 1.309 4.276.39 1.656-.894 2.413-2.553 4.387-3.122 2.114-.609 3.505.292 5.087 1.564 2.216 1.782 2.457.977 4.286.509 1.517-.389 3.277-.568 4.939-.284 8.554 1.465 3.106 12.385 1.065 16.773-1.328 2.854-7.667 14.334-2.051 15.877 1.694.465 3.878.253 5.289 1.468 1.435 1.232 1.293 2.399.484 3.272z" fill="#ED1C40" fill-rule="nonzero"/></svg>

<?xml version="1.0" encoding="UTF-8" standalone="no"?>
<svg width="94px" height="94px" viewBox="0 0 94 94" version="1.1" xmlns="http://www.w3.org/2000/svg" xmlns:xlink="http://www.w3.org/1999/xlink">
    <g id="Page-1" stroke="none" stroke-width="1" fill="none" fill-rule="evenodd">
        <g id="meetup" fill="#ED1C40" fill-rule="nonzero">
            <path d="M47,0.84 C21.506,0.84 0.84,21.506 0.84,47 C0.84,72.494 21.506,93.16 47,93.16 C72.494,93.16 93.16,72.494 93.16,47 C93.16,21.506 72.494,0.84 47,0.84 Z M71.107,65.888 C70.531,66.512 69.615,66.987 68.69,67.229 C66.177,67.886 63.209,67.205 60.872,66.176 C53.42,62.898 55.065,54.593 58.334,48.866 C59.315,47.146 60.283,45.415 61.258,43.674 C62.025,42.304 63.684,39.995 63.033,38.319 C62.352,36.562 60.529,36.551 59.332,38.032 C58.18,39.458 57.209,41.502 56.414,43.161 C55.549,44.968 51.23,54.46 51.23,54.46 C50.431,56.007 49.087,58.229 47.628,59.457 C46.539,60.374 44.551,60.643 43.243,59.693 C42.25,58.97 42.054,58.01 42.249,56.893 C43.149,51.734 50.976,39.727 45.577,38.882 C43.509,38.558 42.947,40.86 42.309,42.329 C41.254,44.756 40.451,47.283 39.323,49.683 C38.026,52.436 37.034,55.305 36.352,58.266 C35.809,60.631 35.105,63.645 32.412,64.366 C25.04,66.338 22.8,61.47 22.8,61.47 C21.597,57.641 22.738,54.197 23.898,50.514 C24.794,47.669 25.328,44.736 26.462,41.968 C28.485,37.033 30.501,26.737 37.794,27.395 C39.655,27.562 41.737,28.503 43.345,29.441 C44.808,30.295 45.919,30.75 47.621,29.831 C49.277,28.937 50.034,27.278 52.008,26.709 C54.122,26.1 55.513,27.001 57.095,28.273 C59.311,30.055 59.552,29.25 61.381,28.782 C62.898,28.393 64.658,28.214 66.32,28.498 C74.874,29.963 69.426,40.883 67.385,45.271 C66.057,48.125 59.718,59.605 65.334,61.148 C67.028,61.613 69.212,61.401 70.623,62.616 C72.058,63.848 71.916,65.015 71.107,65.888 Z" id="Shape"></path>
        </g>
    </g>
</svg>
